; generated by Slic3r 1.0.0RC2 on 2014-12-16 at 14:47:40

; layer_height = 0.25
; perimeters = 2
; top_solid_layers = 3
; bottom_solid_layers = 3
; fill_density = 0.2
; perimeter_speed = 30
; infill_speed = 60
; travel_speed = 130
; nozzle_diameter = 0.4
; filament_diameter = 1.75
; extrusion_multiplier = 1
; perimeters extrusion width = 0.40mm
; infill extrusion width = 0.53mm
; solid infill extrusion width = 0.53mm
; top infill extrusion width = 0.53mm
; first layer extrusion width = 0.80mm

G21 ; set units to millimeters
M107
M190 S60 ; wait for bed temperature to be reached
M104 S220 ; set temperature
G28 ; home all axes
G1 Z5 F5000 ; lift nozzle
M109 S220 ; wait for temperature to be reached
G90 ; use absolute coordinates
G92 E0
M82 ; use absolute distances for extrusion
G1 F1800.000 E-1.00000
G92 E0
G1 Z0.400 F7800.000
G1 X42.916 Y46.260 F7800.000
G1 E1.00000 F1800.000
G1 X44.076 Y45.450 E1.16803 F540.000
G1 X45.366 Y44.850 E1.33700
G1 X46.736 Y44.480 E1.50554
G1 X48.146 Y44.360 E1.67360
G1 X96.396 Y44.360 E7.40402
G1 X97.196 Y44.400 E7.49915
G1 X97.996 Y44.520 E7.59523
G1 X153.226 Y55.570 E14.28462
G1 X154.746 Y56.030 E14.47323
G1 X156.146 Y56.780 E14.66186
G1 X157.376 Y57.790 E14.85088
G1 X158.386 Y59.020 E15.03990
G1 X159.146 Y60.420 E15.22909
G1 X159.606 Y61.940 E15.41770
G1 X159.766 Y63.530 E15.60749
G1 X159.986 Y135.870 E24.19900
G1 X159.836 Y137.450 E24.38749
G1 X159.386 Y138.970 E24.57576
G1 X158.646 Y140.370 E24.76383
G1 X157.646 Y141.610 E24.95302
G1 X156.426 Y142.620 E25.14112
G1 X155.026 Y143.380 E25.33031
G1 X153.516 Y143.860 E25.51849
G1 X98.066 Y155.470 E32.24682
G1 X97.236 Y155.600 E32.34660
G1 X96.396 Y155.640 E32.44648
G1 X48.146 Y155.640 E38.17690
G1 X46.736 Y155.520 E38.34496
G1 X45.366 Y155.150 E38.51350
G1 X44.076 Y154.550 E38.68247
G1 X42.916 Y153.740 E38.85050
G1 X41.906 Y152.730 E39.02014
G1 X41.096 Y151.570 E39.18817
G1 X40.496 Y150.280 E39.35713
G1 X40.126 Y148.910 E39.52567
G1 X40.006 Y147.500 E39.69374
G1 X40.006 Y52.500 E50.97643
G1 X40.126 Y51.090 E51.14449
G1 X40.496 Y49.720 E51.31303
G1 X41.096 Y48.430 E51.48200
G1 X41.906 Y47.270 E51.65003
G1 X42.840 Y46.336 E51.80695
G1 X42.896 Y47.250 F7800.000
G1 X44.016 Y46.320 E51.97984 F540.000
G1 X45.306 Y45.640 E52.15303
G1 X46.696 Y45.210 E52.32583
G1 X48.146 Y45.070 E52.49884
G1 X96.396 Y45.070 E58.22926
G1 X97.126 Y45.110 E58.31609
G1 X97.856 Y45.220 E58.40377
G1 X153.086 Y56.270 E65.09316
G1 X154.476 Y56.690 E65.26562
G1 X155.756 Y57.370 E65.43776
G1 X156.876 Y58.290 E65.60990
G1 X157.796 Y59.420 E65.78296
G1 X158.486 Y60.690 E65.95461
G1 X158.906 Y62.080 E66.12707
G1 X159.056 Y63.530 E66.30020
G1 X159.276 Y135.870 E74.89171
G1 X159.136 Y137.310 E75.06354
G1 X158.726 Y138.700 E75.23565
G1 X158.046 Y139.980 E75.40779
G1 X157.136 Y141.110 E75.58010
G1 X156.026 Y142.030 E75.75133
G1 X154.746 Y142.730 E75.92460
G1 X153.366 Y143.160 E76.09626
G1 X97.916 Y154.770 E82.82460
G1 X97.166 Y154.890 E82.91480
G1 X96.396 Y154.930 E83.00637
G1 X48.146 Y154.930 E88.73679
G1 X46.696 Y154.790 E88.90980
G1 X45.306 Y154.360 E89.08261
G1 X44.016 Y153.680 E89.25580
G1 X42.896 Y152.750 E89.42869
G1 X41.966 Y151.630 E89.60159
G1 X41.286 Y150.340 E89.77478
G1 X40.856 Y148.950 E89.94758
G1 X40.716 Y147.500 E90.12059
G1 X40.716 Y52.500 E101.40328
G1 X40.856 Y51.050 E101.57629
G1 X41.286 Y49.660 E101.74909
G1 X41.966 Y48.370 E101.92228
G1 X42.827 Y47.332 E102.08246
G1 X43.396 Y47.750 F7800.000
G1 X44.416 Y46.920 E102.23864 F540.000
G1 X45.576 Y46.300 E102.39485
G1 X46.836 Y45.910 E102.55150
G1 X48.146 Y45.790 E102.70773
G1 X96.396 Y45.790 E108.43815
G1 X97.056 Y45.820 E108.51662
G1 X97.716 Y45.920 E108.59590
G1 X152.946 Y56.970 E115.28529
G1 X154.196 Y57.350 E115.44046
G1 X155.356 Y57.970 E115.59667
G1 X156.366 Y58.800 E115.75193
G1 X157.206 Y59.810 E115.90794
G1 X157.826 Y60.970 E116.06415
G1 X158.206 Y62.220 E116.21932
G1 X158.336 Y63.530 E116.37567
G1 X158.556 Y135.870 E124.96718
G1 X158.436 Y137.170 E125.12223
G1 X158.066 Y138.430 E125.27819
G1 X157.456 Y139.590 E125.43385
G1 X156.626 Y140.600 E125.58911
G1 X155.616 Y141.440 E125.74512
G1 X154.476 Y142.070 E125.89982
G1 X153.226 Y142.460 E126.05533
G1 X97.776 Y154.070 E132.78366
G1 X97.086 Y154.180 E132.86664
G1 X96.396 Y154.210 E132.94867
G1 X48.146 Y154.210 E138.67909
G1 X46.836 Y154.090 E138.83532
G1 X45.576 Y153.700 E138.99197
G1 X44.416 Y153.080 E139.14818
G1 X43.396 Y152.250 E139.30436
G1 X42.566 Y151.230 E139.46054
G1 X41.946 Y150.070 E139.61675
G1 X41.556 Y148.810 E139.77340
G1 X41.436 Y147.500 E139.92964
G1 X41.436 Y52.500 E151.21233
G1 X41.556 Y51.190 E151.36856
G1 X41.946 Y49.930 E151.52521
G1 X42.566 Y48.770 E151.68142
G1 X43.328 Y47.833 E151.82488
G1 F1800.000 E150.82488
G92 E0
G1 X67.149 Y68.222 F7800.000
G1 E1.00000 F1800.000
G1 X67.561 Y67.783 E1.07154 F540.000
G1 X68.006 Y67.500 E1.13411
G1 X68.070 Y67.460 E1.14309
G1 X68.643 Y67.274 E1.21463
G1 X69.244 Y67.236 E1.28617
G1 X69.318 Y67.250 E1.29515
G1 X69.836 Y67.349 E1.35772
G1 X70.381 Y67.605 E1.42926
G1 X70.845 Y67.989 E1.50081
G1 X71.199 Y68.477 E1.57235
G1 X71.421 Y69.037 E1.64389
G1 X71.496 Y69.634 E1.71544
G1 X71.421 Y70.232 E1.78698
G1 X71.199 Y70.792 E1.85853
G1 X70.845 Y71.279 E1.93007
G1 X70.381 Y71.663 E2.00161
G1 X69.836 Y71.920 E2.07316
G1 X69.244 Y72.033 E2.14470
G1 X68.643 Y71.995 E2.21624
G1 X68.070 Y71.809 E2.28779
G1 X67.561 Y71.486 E2.35933
G1 X67.510 Y71.431 E2.36831
G1 X67.149 Y71.047 E2.43087
G1 X66.859 Y70.519 E2.50242
G1 X66.709 Y69.936 E2.57396
G1 X66.709 Y69.333 E2.64550
G1 X66.859 Y68.750 E2.71705
G1 X67.097 Y68.316 E2.77587
G1 X66.927 Y67.662 F7800.000
G1 F1800.000 E1.77587
G92 E0
G1 X123.393 Y75.171 F7800.000
G1 E1.00000 F1800.000
G1 X123.557 Y74.534 E1.07809 F540.000
G1 X123.874 Y73.958 E1.15618
G1 X124.324 Y73.479 E1.23427
G1 X124.879 Y73.127 E1.31236
G1 X125.353 Y72.973 E1.37150
G1 X125.504 Y72.923 E1.39045
G1 X126.160 Y72.882 E1.46853
G1 X126.806 Y73.005 E1.54662
G1 X127.257 Y73.217 E1.60576
G1 X127.401 Y73.285 E1.62471
G1 X127.908 Y73.704 E1.70279
G1 X128.294 Y74.236 E1.78088
G1 X128.536 Y74.848 E1.85897
G1 X128.619 Y75.500 E1.93706
G1 X128.536 Y76.152 E2.01515
G1 X128.294 Y76.764 E2.09323
G1 X127.908 Y77.296 E2.17132
G1 X127.401 Y77.715 E2.24941
G1 X126.806 Y77.995 E2.32750
G1 X126.160 Y78.118 E2.40559
G1 X125.504 Y78.077 E2.48367
G1 X124.879 Y77.873 E2.56177
G1 X124.324 Y77.521 E2.63985
G1 X123.874 Y77.042 E2.71794
G1 X123.557 Y76.466 E2.79603
G1 X123.393 Y75.829 E2.87412
G1 X123.393 Y75.278 E2.93948
G1 X124.108 Y75.261 F7800.000
G1 X124.226 Y74.799 E2.99615 F540.000
G1 X124.456 Y74.381 E3.05280
G1 X124.783 Y74.034 E3.10946
G1 X125.185 Y73.778 E3.16612
G1 X125.573 Y73.652 E3.21454
G1 X125.639 Y73.631 E3.22278
G1 X126.115 Y73.601 E3.27944
G1 X126.584 Y73.690 E3.33609
G1 X126.953 Y73.864 E3.38452
G1 X127.016 Y73.893 E3.39275
G1 X127.383 Y74.197 E3.44941
G1 X127.663 Y74.583 E3.50607
G1 X127.839 Y75.027 E3.56273
G1 X127.899 Y75.500 E3.61939
G1 X127.839 Y75.973 E3.67605
G1 X127.664 Y76.417 E3.73270
G1 X127.383 Y76.803 E3.78936
G1 X127.016 Y77.107 E3.84602
G1 X126.584 Y77.310 E3.90268
G1 X126.115 Y77.399 E3.95934
G1 X125.639 Y77.369 E4.01599
G1 X125.185 Y77.222 E4.07265
G1 X124.783 Y76.966 E4.12931
G1 X124.456 Y76.619 E4.18597
G1 X124.226 Y76.201 E4.24263
G1 X124.108 Y75.739 E4.29929
G1 X124.108 Y75.369 E4.34322
G1 X123.740 Y74.957 F7800.000
G1 F1800.000 E3.34322
G92 E0
G1 X133.393 Y75.171 F7800.000
G1 E1.00000 F1800.000
G1 X133.557 Y74.534 E1.07809 F540.000
G1 X133.874 Y73.958 E1.15618
G1 X134.324 Y73.479 E1.23427
G1 X134.879 Y73.127 E1.31236
G1 X135.353 Y72.973 E1.37150
G1 X135.504 Y72.923 E1.39045
G1 X136.160 Y72.882 E1.46853
G1 X136.806 Y73.005 E1.54662
G1 X137.257 Y73.217 E1.60576
G1 X137.401 Y73.285 E1.62471
G1 X137.908 Y73.704 E1.70279
G1 X138.294 Y74.236 E1.78088
G1 X138.536 Y74.848 E1.85897
G1 X138.619 Y75.500 E1.93706
G1 X138.536 Y76.152 E2.01515
G1 X138.294 Y76.764 E2.09323
G1 X137.908 Y77.296 E2.17132
G1 X137.401 Y77.715 E2.24941
G1 X136.806 Y77.995 E2.32750
G1 X136.160 Y78.118 E2.40559
G1 X135.504 Y78.077 E2.48367
G1 X134.879 Y77.873 E2.56177
G1 X134.324 Y77.521 E2.63985
G1 X133.874 Y77.042 E2.71794
G1 X133.557 Y76.466 E2.79603
G1 X133.393 Y75.829 E2.87412
G1 X133.393 Y75.278 E2.93948
G1 X134.108 Y75.261 F7800.000
G1 X134.226 Y74.799 E2.99615 F540.000
G1 X134.456 Y74.381 E3.05280
G1 X134.783 Y74.034 E3.10946
G1 X135.185 Y73.778 E3.16612
G1 X135.573 Y73.652 E3.21454
G1 X135.639 Y73.631 E3.22278
G1 X136.115 Y73.601 E3.27944
G1 X136.584 Y73.690 E3.33609
G1 X136.953 Y73.864 E3.38452
G1 X137.016 Y73.893 E3.39275
G1 X137.383 Y74.197 E3.44941
G1 X137.663 Y74.583 E3.50607
G1 X137.839 Y75.027 E3.56273
G1 X137.899 Y75.500 E3.61939
G1 X137.839 Y75.973 E3.67605
G1 X137.664 Y76.417 E3.73270
G1 X137.383 Y76.803 E3.78936
G1 X137.016 Y77.107 E3.84602
G1 X136.584 Y77.310 E3.90268
G1 X136.115 Y77.399 E3.95934
G1 X135.639 Y77.369 E4.01599
G1 X135.185 Y77.222 E4.07265
G1 X134.783 Y76.966 E4.12931
G1 X134.456 Y76.619 E4.18597
G1 X134.226 Y76.201 E4.24263
G1 X134.108 Y75.739 E4.29929
G1 X134.108 Y75.369 E4.34322
G1 X133.740 Y74.957 F7800.000
G1 F1800.000 E3.34322
G92 E0
G1 X64.993 Y82.900 F7800.000
G1 E1.00000 F1800.000
G1 X55.193 Y82.900 E2.16390 F378.000
G1 X55.193 Y58.100 E5.10927
G1 X64.993 Y58.100 E6.27317
G1 X64.993 Y82.793 E9.20583
G1 X64.993 Y83.614 F7800.000
G1 X81.991 Y84.671 F7800.000
G1 X82.154 Y84.034 E9.28392 F540.000
G1 X82.471 Y83.458 E9.36200
G1 X82.921 Y82.979 E9.44009
G1 X83.476 Y82.627 E9.51818
G1 X83.950 Y82.473 E9.57732
G1 X84.102 Y82.423 E9.59627
G1 X84.758 Y82.382 E9.67436
G1 X85.404 Y82.505 E9.75245
G1 X85.999 Y82.785 E9.83053
G1 X86.505 Y83.204 E9.90862
G1 X86.892 Y83.736 E9.98671
G1 X87.134 Y84.348 E10.06479
G1 X87.216 Y85.000 E10.14288
G1 X87.134 Y85.652 E10.22098
G1 X86.892 Y86.264 E10.29906
G1 X86.505 Y86.796 E10.37715
G1 X85.999 Y87.215 E10.45524
G1 X85.404 Y87.495 E10.53333
G1 X84.758 Y87.618 E10.61141
G1 X84.102 Y87.577 E10.68950
G1 X83.476 Y87.373 E10.76759
G1 X82.921 Y87.021 E10.84568
G1 X82.471 Y86.542 E10.92377
G1 X82.154 Y85.966 E11.00186
G1 X81.991 Y85.329 E11.07995
G1 X81.991 Y84.778 E11.14531
G1 X82.705 Y84.761 F7800.000
G1 X82.824 Y84.299 E11.20197 F540.000
G1 X83.054 Y83.881 E11.25863
G1 X83.380 Y83.534 E11.31529
G1 X83.783 Y83.278 E11.37195
G1 X84.171 Y83.152 E11.42037
G1 X84.237 Y83.131 E11.42861
G1 X84.713 Y83.101 E11.48526
G1 X85.181 Y83.190 E11.54192
G1 X85.613 Y83.393 E11.59858
G1 X85.981 Y83.697 E11.65524
G1 X86.261 Y84.083 E11.71190
G1 X86.437 Y84.527 E11.76855
G1 X86.496 Y85.000 E11.82521
G1 X86.437 Y85.473 E11.88187
G1 X86.261 Y85.917 E11.93853
G1 X85.981 Y86.303 E11.99519
G1 X85.613 Y86.607 E12.05185
G1 X85.181 Y86.810 E12.10851
G1 X84.713 Y86.899 E12.16516
G1 X84.237 Y86.869 E12.22182
G1 X83.783 Y86.722 E12.27848
G1 X83.380 Y86.466 E12.33514
G1 X83.054 Y86.119 E12.39180
G1 X82.824 Y85.701 E12.44846
G1 X82.705 Y85.239 E12.50512
G1 X82.705 Y84.869 E12.54905
G1 X82.338 Y84.457 F7800.000
G1 F1800.000 E11.54905
G92 E0
G1 X112.991 Y84.671 F7800.000
G1 E1.00000 F1800.000
G1 X113.155 Y84.034 E1.07809 F540.000
G1 X113.471 Y83.458 E1.15618
G1 X113.921 Y82.979 E1.23427
G1 X114.476 Y82.627 E1.31236
G1 X114.950 Y82.473 E1.37150
G1 X115.102 Y82.423 E1.39044
G1 X115.758 Y82.382 E1.46853
G1 X116.404 Y82.505 E1.54662
G1 X116.999 Y82.785 E1.62470
G1 X117.505 Y83.204 E1.70279
G1 X117.892 Y83.736 E1.78088
G1 X118.134 Y84.348 E1.85897
G1 X118.216 Y85.000 E1.93706
G1 X118.134 Y85.652 E2.01514
G1 X117.892 Y86.264 E2.09323
G1 X117.505 Y86.796 E2.17132
G1 X116.999 Y87.215 E2.24941
G1 X116.404 Y87.495 E2.32750
G1 X115.758 Y87.618 E2.40559
G1 X115.102 Y87.577 E2.48367
G1 X114.476 Y87.373 E2.56176
G1 X113.921 Y87.021 E2.63985
G1 X113.471 Y86.542 E2.71794
G1 X113.154 Y85.966 E2.79603
G1 X112.991 Y85.329 E2.87412
G1 X112.991 Y84.778 E2.93948
G1 X113.705 Y84.761 F7800.000
G1 X113.824 Y84.299 E2.99614 F540.000
G1 X114.054 Y83.881 E3.05280
G1 X114.380 Y83.534 E3.10946
G1 X114.783 Y83.278 E3.16612
G1 X115.171 Y83.152 E3.21454
G1 X115.237 Y83.131 E3.22278
G1 X115.713 Y83.101 E3.27944
G1 X116.181 Y83.190 E3.33609
G1 X116.613 Y83.393 E3.39275
G1 X116.981 Y83.697 E3.44941
G1 X117.261 Y84.083 E3.50607
G1 X117.437 Y84.527 E3.56273
G1 X117.496 Y85.000 E3.61939
G1 X117.437 Y85.473 E3.67604
G1 X117.261 Y85.917 E3.73270
G1 X116.981 Y86.303 E3.78936
G1 X116.613 Y86.607 E3.84602
G1 X116.181 Y86.810 E3.90268
G1 X115.713 Y86.899 E3.95934
G1 X115.237 Y86.869 E4.01599
G1 X114.783 Y86.722 E4.07265
G1 X114.380 Y86.466 E4.12931
G1 X114.054 Y86.119 E4.18597
G1 X113.824 Y85.701 E4.24263
G1 X113.705 Y85.239 E4.29929
G1 X113.705 Y84.869 E4.34322
G1 X113.338 Y84.457 F7800.000
G1 X74.134 Y94.848 F7800.000
G1 X74.216 Y95.500 E4.42131 F540.000
G1 X74.134 Y96.152 E4.49940
G1 X73.892 Y96.764 E4.57749
G1 X73.505 Y97.296 E4.65558
G1 X72.999 Y97.715 E4.73366
G1 X72.404 Y97.995 E4.81175
G1 X71.758 Y98.118 E4.88984
G1 X71.102 Y98.077 E4.96793
G1 X70.476 Y97.873 E5.04602
G1 X69.921 Y97.521 E5.12411
G1 X69.471 Y97.042 E5.20220
G1 X69.154 Y96.466 E5.28029
G1 X68.991 Y95.829 E5.35837
G1 X68.991 Y95.171 E5.43646
G1 X69.154 Y94.534 E5.51456
G1 X69.471 Y93.958 E5.59264
G1 X69.812 Y93.595 E5.65178
G1 X69.921 Y93.479 E5.67073
G1 X70.477 Y93.127 E5.74882
G1 X71.102 Y92.923 E5.82691
G1 X71.599 Y92.892 E5.88605
G1 X71.758 Y92.882 E5.90500
G1 X72.404 Y93.005 E5.98308
G1 X72.999 Y93.285 E6.06117
G1 X73.505 Y93.704 E6.13926
G1 X73.892 Y94.236 E6.21734
G1 X74.094 Y94.748 E6.28271
G1 X73.437 Y95.027 F7800.000
G1 X73.496 Y95.500 E6.33937 F540.000
G1 X73.437 Y95.973 E6.39603
G1 X73.261 Y96.417 E6.45268
G1 X72.981 Y96.803 E6.50934
G1 X72.613 Y97.107 E6.56600
G1 X72.181 Y97.310 E6.62266
G1 X71.713 Y97.399 E6.67932
G1 X71.237 Y97.369 E6.73598
G1 X70.783 Y97.222 E6.79264
G1 X70.380 Y96.966 E6.84929
G1 X70.054 Y96.619 E6.90595
G1 X69.824 Y96.201 E6.96261
G1 X69.705 Y95.739 E7.01927
G1 X69.705 Y95.261 E7.07593
G1 X69.824 Y94.799 E7.13259
G1 X70.054 Y94.381 E7.18925
G1 X70.333 Y94.084 E7.23767
G1 X70.380 Y94.034 E7.24590
G1 X70.783 Y93.778 E7.30256
G1 X71.237 Y93.631 E7.35922
G1 X71.644 Y93.605 E7.40765
G1 X71.713 Y93.601 E7.41588
G1 X72.181 Y93.690 E7.47254
G1 X72.613 Y93.893 E7.52920
G1 X72.981 Y94.197 E7.58586
G1 X73.261 Y94.583 E7.64251
G1 X73.397 Y94.927 E7.68645
G1 X73.890 Y95.174 F7800.000
G1 X72.404 Y103.005 F7800.000
G1 X72.999 Y103.285 E7.76454 F540.000
G1 X73.382 Y103.603 E7.82368
G1 X73.505 Y103.704 E7.84262
G1 X73.892 Y104.236 E7.92071
G1 X74.134 Y104.848 E7.99880
G1 X74.216 Y105.500 E8.07689
G1 X74.134 Y106.152 E8.15498
G1 X73.892 Y106.764 E8.23306
G1 X73.505 Y107.296 E8.31115
G1 X72.999 Y107.715 E8.38924
G1 X72.404 Y107.995 E8.46733
G1 X71.758 Y108.118 E8.54541
G1 X71.102 Y108.077 E8.62350
G1 X70.476 Y107.873 E8.70159
G1 X69.921 Y107.521 E8.77968
G1 X69.471 Y107.042 E8.85777
G1 X69.154 Y106.466 E8.93586
G1 X68.991 Y105.829 E9.01395
G1 X68.991 Y105.171 E9.09204
G1 X69.154 Y104.534 E9.17013
G1 X69.471 Y103.958 E9.24821
G1 X69.921 Y103.479 E9.32630
G1 X70.477 Y103.127 E9.40440
G1 X71.102 Y102.923 E9.48248
G1 X71.758 Y102.882 E9.56057
G1 X72.299 Y102.985 E9.62593
G1 X72.181 Y103.690 F7800.000
G1 X72.613 Y103.893 E9.68259 F540.000
G1 X72.927 Y104.153 E9.73102
G1 X72.981 Y104.197 E9.73925
G1 X73.261 Y104.583 E9.79591
G1 X73.437 Y105.027 E9.85257
G1 X73.496 Y105.500 E9.90923
G1 X73.437 Y105.973 E9.96588
G1 X73.261 Y106.417 E10.02254
G1 X72.981 Y106.803 E10.07920
G1 X72.613 Y107.107 E10.13586
G1 X72.181 Y107.310 E10.19252
G1 X71.713 Y107.399 E10.24918
G1 X71.237 Y107.369 E10.30583
G1 X70.783 Y107.222 E10.36249
G1 X70.380 Y106.966 E10.41915
G1 X70.054 Y106.619 E10.47581
G1 X69.824 Y106.201 E10.53247
G1 X69.705 Y105.739 E10.58913
G1 X69.705 Y105.261 E10.64579
G1 X69.824 Y104.799 E10.70245
G1 X70.054 Y104.381 E10.75910
G1 X70.380 Y104.034 E10.81576
G1 X70.783 Y103.778 E10.87242
G1 X71.237 Y103.631 E10.92908
G1 X71.713 Y103.601 E10.98574
G1 X72.076 Y103.670 E11.02967
G1 X72.549 Y103.386 F7800.000
G1 X87.034 Y101.710 F7800.000
G1 X86.978 Y100.500 E11.17355 F540.000
G1 X87.034 Y99.290 E11.31743
G1 X87.201 Y98.090 E11.46130
G1 X87.479 Y96.911 E11.60517
G1 X87.830 Y95.864 E11.73635
G1 X88.353 Y94.654 E11.89288
