; generated by Slic3r 1.0.0RC2 on 2014-12-13 at 13:26:27

; layer_height = 0.3
; perimeters = 2
; top_solid_layers = 3
; bottom_solid_layers = 3
; fill_density = 0.2
; perimeter_speed = 30
; infill_speed = 60
; travel_speed = 130
; nozzle_diameter = 0.4
; filament_diameter = 1.75
; extrusion_multiplier = 1
; perimeters extrusion width = 0.40mm
; infill extrusion width = 0.42mm
; solid infill extrusion width = 0.42mm
; top infill extrusion width = 0.42mm
; first layer extrusion width = 0.80mm

G21 ; set units to millimeters
M107
M190 S60 ; wait for bed temperature to be reached
M104 S220 ; set temperature
G28 ; home all axes
G1 Z5 F5000 ; lift nozzle
M109 S220 ; wait for temperature to be reached
G90 ; use absolute coordinates
G92 E0
M82 ; use absolute distances for extrusion
G1 F1800.000 E-1.00000
G92 E0
G1 Z0.400 F7800.000
G1 X86.750 Y81.163 F7800.000
G1 E1.00000 F1800.000
G1 X87.750 Y80.153 E1.16880 F540.000
G1 X88.910 Y79.343 E1.33683
G1 X90.190 Y78.743 E1.50472
G1 X91.560 Y78.373 E1.67326
G1 X92.970 Y78.243 E1.84143
G1 X106.970 Y78.183 E3.50416
G1 X108.380 Y78.303 E3.67222
G1 X109.760 Y78.663 E3.84160
G1 X111.050 Y79.263 E4.01057
G1 X112.220 Y80.073 E4.17958
G1 X113.230 Y81.073 E4.34838
G1 X114.050 Y82.243 E4.51806
G1 X114.650 Y83.533 E4.68703
G1 X115.020 Y84.903 E4.85557
G1 X115.140 Y86.323 E5.02482
G1 X115.140 Y108.363 E7.64240
G1 X115.090 Y109.373 E7.76250
G1 X114.950 Y110.393 E7.88478
G1 X114.870 Y110.783 E7.93206
G1 X114.640 Y111.653 E8.03894
G1 X114.520 Y112.023 E8.08513
G1 X114.010 Y113.233 E8.24108
G1 X113.460 Y114.233 E8.37662
G1 X113.250 Y114.563 E8.42308
G1 X112.440 Y115.633 E8.58246
G1 X112.180 Y115.923 E8.62872
G1 X111.450 Y116.633 E8.74966
G1 X111.150 Y116.893 E8.79681
G1 X110.430 Y117.453 E8.90514
G1 X109.560 Y118.023 E9.02867
G1 X105.550 Y120.333 E9.57829
G1 X104.700 Y120.763 E9.69142
G1 X103.840 Y121.123 E9.80215
G1 X103.470 Y121.253 E9.84872
G1 X102.250 Y121.583 E9.99882
G1 X101.870 Y121.653 E10.04471
G1 X101.000 Y121.763 E10.14886
G1 X100.600 Y121.793 E10.19650
G1 X99.370 Y121.793 E10.34258
G1 X98.980 Y121.763 E10.38904
G1 X98.120 Y121.653 E10.49201
G1 X97.740 Y121.583 E10.53790
G1 X96.520 Y121.253 E10.68800
G1 X96.150 Y121.123 E10.73457
G1 X95.290 Y120.763 E10.84530
G1 X94.430 Y120.323 E10.96003
G1 X90.430 Y118.013 E11.50862
G1 X89.650 Y117.513 E11.61865
G1 X88.840 Y116.893 E11.73980
G1 X88.540 Y116.633 E11.78695
G1 X87.810 Y115.923 E11.90789
G1 X87.550 Y115.633 E11.95415
G1 X86.740 Y114.563 E12.11353
G1 X86.530 Y114.233 E12.15999
G1 X85.980 Y113.233 E12.29553
G1 X85.470 Y112.023 E12.45148
G1 X85.350 Y111.653 E12.49768
G1 X85.120 Y110.783 E12.60455
G1 X85.040 Y110.393 E12.65184
G1 X84.890 Y109.173 E12.79782
G1 X84.870 Y108.783 E12.84420
G1 X84.860 Y86.383 E15.50454
G1 X84.980 Y84.973 E15.67260
G1 X85.350 Y83.603 E15.84114
G1 X85.940 Y82.323 E16.00853
G1 X86.689 Y81.251 E16.16384
G1 X86.820 Y82.263 F7800.000
G1 X87.740 Y81.143 E16.33598 F540.000
G1 X88.860 Y80.213 E16.50888
G1 X90.140 Y79.533 E16.68102
G1 X91.520 Y79.103 E16.85269
G1 X92.970 Y78.953 E17.02581
G1 X106.970 Y78.893 E18.68854
G1 X108.420 Y79.033 E18.86155
G1 X109.820 Y79.453 E19.03514
G1 X111.110 Y80.133 E19.20833
G1 X112.240 Y81.063 E19.38215
G1 X113.170 Y82.183 E19.55504
G1 X113.860 Y83.473 E19.72879
G1 X114.280 Y84.873 E19.90238
G1 X114.430 Y86.323 E20.07551
G1 X114.430 Y108.363 E22.69309
G1 X114.380 Y109.323 E22.80726
G1 X114.250 Y110.243 E22.91761
G1 X114.170 Y110.633 E22.96489
G1 X113.960 Y111.433 E23.06313
G1 X113.840 Y111.803 E23.10932
G1 X113.380 Y112.913 E23.25202
G1 X112.860 Y113.853 E23.37961
G1 X112.650 Y114.183 E23.42606
G1 X111.910 Y115.153 E23.57096
G1 X111.650 Y115.443 E23.61722
G1 X110.990 Y116.093 E23.72723
G1 X110.690 Y116.353 E23.77438
G1 X110.030 Y116.863 E23.87344
G1 X109.210 Y117.403 E23.99005
G1 X105.200 Y119.713 E24.53967
G1 X104.390 Y120.123 E24.64749
G1 X103.600 Y120.453 E24.74917
G1 X103.230 Y120.583 E24.79575
G1 X102.120 Y120.883 E24.93231
G1 X101.740 Y120.953 E24.97820
G1 X100.950 Y121.053 E25.07277
G1 X100.550 Y121.083 E25.12041
G1 X99.420 Y121.083 E25.25461
G1 X99.030 Y121.053 E25.30107
G1 X98.250 Y120.953 E25.39446
G1 X97.870 Y120.883 E25.44035
G1 X96.760 Y120.583 E25.57691
G1 X96.390 Y120.453 E25.62349
G1 X95.600 Y120.123 E25.72517
G1 X94.790 Y119.703 E25.83353
G1 X90.790 Y117.393 E26.38212
G1 X90.050 Y116.923 E26.48624
G1 X89.300 Y116.353 E26.59812
G1 X89.000 Y116.093 E26.64526
G1 X88.340 Y115.443 E26.75528
G1 X88.080 Y115.153 E26.80154
G1 X87.340 Y114.183 E26.94644
G1 X86.790 Y113.263 E27.07374
G1 X86.610 Y112.913 E27.12048
G1 X86.150 Y111.803 E27.26318
G1 X86.030 Y111.433 E27.30938
G1 X85.820 Y110.633 E27.40761
G1 X85.740 Y110.243 E27.45489
G1 X85.600 Y109.133 E27.58777
G1 X85.580 Y108.743 E27.63414
G1 X85.570 Y86.383 E30.28973
G1 X85.710 Y84.933 E30.46274
G1 X86.130 Y83.543 E30.63520
G1 X86.769 Y82.357 E30.79518
G1 X87.410 Y82.663 F7800.000
G1 X88.240 Y81.643 E30.95136 F540.000
G1 X89.250 Y80.813 E31.10662
G1 X90.410 Y80.193 E31.26283
G1 X91.670 Y79.803 E31.41948
G1 X92.970 Y79.673 E31.57464
G1 X106.970 Y79.613 E33.23737
G1 X108.290 Y79.733 E33.39479
G1 X109.550 Y80.113 E33.55109
G1 X110.720 Y80.733 E33.70835
G1 X111.740 Y81.563 E33.86453
G1 X112.580 Y82.583 E34.02146
G1 X113.200 Y83.743 E34.17767
G1 X113.580 Y85.013 E34.33511
G1 X113.710 Y86.323 E34.49145
G1 X113.710 Y108.363 E37.10904
G1 X113.660 Y109.263 E37.21609
G1 X113.550 Y110.103 E37.31671
G1 X113.470 Y110.493 E37.36399
G1 X113.280 Y111.213 E37.45243
G1 X113.160 Y111.583 E37.49862
G1 X112.740 Y112.583 E37.62744
G1 X112.560 Y112.933 E37.67418
G1 X112.040 Y113.793 E37.79354
G1 X111.380 Y114.673 E37.92418
G1 X111.120 Y114.963 E37.97044
G1 X110.520 Y115.553 E38.07038
G1 X110.220 Y115.813 E38.11753
G1 X109.620 Y116.273 E38.20732
G1 X108.850 Y116.783 E38.31701
G1 X104.840 Y119.093 E38.86662
G1 X104.070 Y119.483 E38.96913
G1 X103.370 Y119.773 E39.05912
G1 X103.000 Y119.903 E39.10570
G1 X101.990 Y120.173 E39.22986
G1 X100.890 Y120.343 E39.36206
G1 X100.490 Y120.373 E39.40970
G1 X99.480 Y120.363 E39.52965
G1 X98.380 Y120.243 E39.66107
G1 X98.000 Y120.173 E39.70696
G1 X96.990 Y119.903 E39.83113
G1 X96.620 Y119.773 E39.87770
G1 X95.920 Y119.483 E39.96769
G1 X95.140 Y119.083 E40.07180
G1 X91.140 Y116.773 E40.62039
G1 X90.450 Y116.333 E40.71758
G1 X89.770 Y115.813 E40.81925
G1 X89.470 Y115.553 E40.86639
G1 X88.870 Y114.963 E40.96633
G1 X88.610 Y114.673 E41.01259
G1 X87.950 Y113.793 E41.14323
G1 X87.430 Y112.933 E41.26259
G1 X87.250 Y112.583 E41.30933
G1 X86.830 Y111.583 E41.43815
G1 X86.710 Y111.213 E41.48434
G1 X86.520 Y110.493 E41.57278
G1 X86.440 Y110.103 E41.62007
G1 X86.310 Y109.093 E41.74101
G1 X86.290 Y108.703 E41.78739
G1 X86.290 Y86.383 E44.43823
G1 X86.410 Y85.073 E44.59446
G1 X86.790 Y83.823 E44.74962
G1 X87.360 Y82.757 E44.89311
G1 F1800.000 E43.89311
G92 E0
G1 X94.114 Y87.497 F7800.000
G1 E1.00000 F1800.000
G1 X99.515 Y87.497 E1.64141 F540.000
G1 X105.886 Y87.446 E2.39809
G1 X105.886 Y102.261 E4.15760
G1 X100.000 Y98.863 E4.96477
G1 X94.114 Y102.261 E5.77195
G1 X94.114 Y87.604 E7.51265
G1 X93.400 Y86.783 F7800.000
G1 X99.512 Y86.783 E8.23855 F378.000
G1 X106.600 Y86.726 E9.08038
G1 X106.600 Y108.355 E11.64913
G1 X106.577 Y108.707 E11.69106
G1 X106.511 Y109.041 E11.73144
G1 X106.206 Y109.938 E11.84398
G1 X105.803 Y109.871 E11.89250
G1 X105.803 Y103.038 E12.70410
G1 X100.000 Y99.687 E13.49990
G1 X94.197 Y103.038 E14.29570
G1 X94.197 Y109.871 E15.10730
G1 X93.794 Y109.938 E15.15582
G1 X93.489 Y109.041 E15.26836
G1 X93.423 Y108.707 E15.30874
G1 X93.400 Y108.355 E15.35067
G1 X93.400 Y86.890 E17.89993
G1 X94.018 Y87.140 F7800.000
G1 F1800.000 E16.89993
G92 E0
G1 X105.914 Y110.402 F7800.000
G1 E1.00000 F1800.000
G1 X105.283 Y110.610 E1.07891 F378.000
G1 X104.851 Y110.576 E1.13047
G1 X105.369 Y109.602 E1.26155
G1 X104.851 Y110.576 F7800.000
G1 X101.055 Y112.776 E1.78260 F378.000
G1 X99.858 Y113.152 E1.93164
G1 X98.975 Y112.796 E2.04470
G1 X95.143 Y110.578 E2.57057
G1 X94.703 Y109.681 F7800.000
G1 X95.143 Y110.578 E2.68926 F378.000
G1 X94.115 Y110.547 E2.81131
G1 X94.020 Y110.358 E2.83647
G1 X94.659 Y101.391 F7800.000
G1 X94.595 Y101.327 E2.84768 F1080.000
G1 X95.324 Y101.007 E2.94595
G1 X94.595 Y100.278 E3.07324
G1 X94.595 Y99.229 E3.20269
G1 X95.989 Y100.623 E3.44604
G1 X96.655 Y100.239 E3.54081
G1 X94.595 Y98.179 E3.90023
G1 X94.595 Y97.130 E4.02969
G1 X97.320 Y99.855 E4.50518
G1 X97.985 Y99.471 E4.59995
G1 X94.595 Y96.081 E5.19151
G1 X94.595 Y95.032 E5.32096
G1 X98.650 Y99.087 E6.02859
G1 X99.315 Y98.703 E6.12336
G1 X94.595 Y93.982 E6.94705
G1 X94.595 Y92.933 E7.07651
G1 X99.981 Y98.319 E8.01628
G1 X102.410 Y99.699 F7800.000
G1 X94.595 Y91.884 E9.37997 F1080.000
G1 X94.595 Y90.835 E9.50943
G1 X104.893 Y101.133 E11.30630
G1 X105.405 Y100.596 E11.39786
G1 X94.595 Y89.785 E13.28416
G1 X94.595 Y88.736 E13.41362
G1 X105.405 Y99.547 E15.29992
G1 X105.405 Y98.497 E15.42937
G1 X94.886 Y87.978 E17.26493
G1 X95.935 Y87.978 E17.39439
G1 X105.405 Y97.448 E19.04687
G1 X105.405 Y96.399 E19.17633
G1 X96.984 Y87.978 E20.64574
G1 X98.033 Y87.978 E20.77520
G1 X105.405 Y95.350 E22.06154
G1 X105.405 Y94.300 E22.19100
G1 X99.082 Y87.978 E23.29426
G1 X100.127 Y87.973 E23.42314
G1 X105.405 Y93.251 E24.34414
G1 X105.405 Y92.202 E24.47360
G1 X101.168 Y87.964 E25.21298
G1 X102.209 Y87.956 E25.34141
G1 X105.405 Y91.153 E25.89917
G1 X105.405 Y90.103 E26.02863
G1 X103.250 Y87.948 E26.40477
G1 X104.290 Y87.939 E26.53320
G1 X105.405 Y89.054 E26.72771
G1 X105.405 Y88.005 E26.85717
G1 X105.331 Y87.931 E26.87006
M106 S255
M104 S215 ; set temperature
M140 S55 ; set bed temperature
G1 F1800.000 E25.87006
G92 E0
G1 Z0.700 F7800.000
G1 X100.000 Y100.259 F7800.000
G1 E1.00000 F1800.000
M106 S255
G1 X105.308 Y103.324 E1.32020 F1800
G1 X105.308 Y109.452 E1.64040
G1 X100.000 Y112.517 E1.96060
G1 X94.692 Y109.452 E2.28080
G1 X94.692 Y103.324 E2.60100
G1 X99.948 Y100.289 E2.91807
M106 S255
G1 X100.182 Y100.043 F7800.000
G1 F1800.000 E1.91807
G92 E0
G1 X94.433 Y109.764 F7800.000
G1 E1.00000 F1800.000
G1 X99.574 Y112.733 E1.29621 F988.556
G1 X99.404 Y113.052 E1.31426
G1 X98.783 Y112.746 E1.34880
G1 X94.817 Y110.456 E1.57727
G1 X94.241 Y110.072 E1.61180
G1 X94.401 Y109.815 E1.62686
G1 X100.426 Y112.733 F7800.000
G1 X105.568 Y109.764 E1.92307 F988.556
G1 X105.759 Y110.072 E1.94112
G1 X105.183 Y110.456 E1.97566
G1 X101.217 Y112.746 E2.20413
G1 X100.596 Y113.052 E2.23866
G1 X100.454 Y112.786 E2.25372
G1 X105.708 Y109.935 F7800.000
G1 X105.708 Y103.093 E2.59509 F988.556
G1 X100.000 Y99.797 E2.92391
G1 X94.292 Y103.093 E3.25272
G1 X94.292 Y109.935 E3.59409
G1 X94.124 Y109.975 E3.60274
G1 X93.784 Y109.286 E3.64105
G1 X93.683 Y108.989 E3.65670
G1 X93.622 Y108.681 E3.67236
G1 X93.600 Y108.348 E3.68899
G1 X93.600 Y86.983 E4.75491
G1 X99.513 Y86.983 E5.04990
G1 X106.400 Y86.928 E5.39352
G1 X106.400 Y108.348 E6.46220
G1 X106.378 Y108.681 E6.47883
G1 X106.317 Y108.989 E6.49449
G1 X106.216 Y109.286 E6.51014
G1 X105.876 Y109.975 E6.54845
G1 X105.766 Y109.949 E6.55410
G1 X105.980 Y110.347 F7800.000
G1 X105.704 Y110.589 E6.57237 F691.990
G1 X105.394 Y110.796 E6.59097
G1 X101.406 Y113.099 E6.82075
G1 X101.071 Y113.264 E6.83935
G1 X100.725 Y113.381 E6.85762
G1 X100.365 Y113.453 E6.87589
G1 X100.000 Y113.477 E6.89416
G1 X99.635 Y113.453 E6.91243
G1 X99.275 Y113.381 E6.93070
G1 X98.929 Y113.264 E6.94897
G1 X98.594 Y113.099 E6.96756
G1 X94.606 Y110.796 E7.19734
G1 X94.296 Y110.589 E7.21594
G1 X94.020 Y110.347 E7.23421
G1 X93.779 Y110.072 E7.25248
G1 X93.575 Y109.768 E7.27075
G1 X93.414 Y109.439 E7.28902
G1 X93.296 Y109.092 E7.30729
G1 X93.224 Y108.733 E7.32556
G1 X93.200 Y108.361 E7.34416
G1 X93.200 Y86.583 E8.43068
G1 X99.511 Y86.583 E8.74555
G1 X106.800 Y86.524 E9.10920
G1 X106.800 Y108.361 E10.19865
G1 X106.776 Y108.733 E10.21725
G1 X106.704 Y109.092 E10.23552
G1 X106.586 Y109.439 E10.25379
G1 X106.424 Y109.768 E10.27206
G1 X106.221 Y110.072 E10.29033
G1 X106.019 Y110.302 E10.30560
G1 X105.628 Y110.245 F7800.000
G1 X106.127 Y102.731 F7800.000
G1 X106.090 Y102.767 E10.30837 F1977.113
G1 X105.709 Y102.547 E10.33176
G1 X106.127 Y102.129 E10.36317
G1 X106.127 Y101.527 E10.39512
G1 X105.181 Y102.473 E10.46617
G1 X104.799 Y102.253 E10.48955
G1 X106.127 Y100.925 E10.58924
G1 X106.127 Y100.323 E10.62119
G1 X104.417 Y102.033 E10.74953
G1 X104.036 Y101.812 E10.77292
G1 X106.127 Y99.721 E10.92989
G1 X106.127 Y99.119 E10.96184
G1 X103.654 Y101.592 E11.14747
G1 X103.273 Y101.372 E11.17085
G1 X106.127 Y98.517 E11.38512
G1 X106.127 Y97.916 E11.41707
G1 X102.891 Y101.151 E11.65998
G1 X102.510 Y100.931 E11.68337
G1 X106.127 Y97.314 E11.95493
G1 X106.127 Y96.712 E11.98688
G1 X102.128 Y100.711 E12.28708
G1 X101.746 Y100.490 E12.31046
G1 X106.127 Y96.110 E12.63931
G1 X106.127 Y95.508 E12.67126
G1 X101.365 Y100.270 E13.02875
G1 X100.983 Y100.050 E13.05214
G1 X106.127 Y94.906 E13.43827
G1 X106.127 Y94.304 E13.47022
G1 X100.602 Y99.830 E13.88500
G1 X100.220 Y99.609 E13.90838
G1 X106.127 Y93.702 E14.35181
G1 X106.127 Y93.101 E14.38375
G1 X99.398 Y99.830 E14.88892
G1 X97.974 Y100.652 F7800.000
G1 X106.127 Y92.499 E15.50098 F1977.113
G1 X106.127 Y91.897 E15.53293
G1 X96.550 Y101.474 E16.25190
G1 X95.126 Y102.296 F7800.000
G1 X106.127 Y91.295 E17.07777 F1977.113
G1 X106.127 Y90.693 E17.10972
G1 X94.248 Y102.572 E18.00147
G1 X93.873 Y102.345 E18.02474
G1 X106.127 Y90.091 E18.94464
G1 X106.127 Y89.489 E18.97659
G1 X93.873 Y101.743 E19.89649
G1 X93.873 Y101.142 E19.92844
G1 X106.127 Y88.887 E20.84835
G1 X106.127 Y88.286 E20.88030
G1 X93.873 Y100.540 E21.80020
G1 X93.873 Y99.938 E21.83215
G1 X106.127 Y87.684 E22.75205
G1 X106.005 Y87.204 E22.77834
G1 X93.873 Y99.336 E23.68909
G1 X93.873 Y98.734 E23.72104
G1 X105.398 Y87.209 E24.58624
G1 X104.792 Y87.213 E24.61845
G1 X93.873 Y98.132 E25.43810
G1 X93.873 Y97.530 E25.47005
G1 X104.185 Y87.218 E26.24416
G1 X103.578 Y87.223 E26.27637
G1 X93.873 Y96.928 E27.00493
G1 X93.873 Y96.327 E27.03687
G1 X102.971 Y87.228 E27.71988
G1 X102.365 Y87.233 E27.75209
G1 X93.873 Y95.725 E28.38956
G1 X93.873 Y95.123 E28.42150
G1 X101.758 Y87.238 E29.01342
G1 X101.151 Y87.243 E29.04563
G1 X93.873 Y94.521 E29.59199
G1 X93.873 Y93.919 E29.62394
G1 X100.544 Y87.248 E30.12476
G1 X99.938 Y87.252 E30.15697
G1 X93.873 Y93.317 E30.61224
G1 X93.873 Y92.715 E30.64418
G1 X99.333 Y87.255 E31.05406
G1 X98.731 Y87.255 E31.08601
G1 X93.873 Y92.113 E31.45070
G1 X93.873 Y91.512 E31.48264
G1 X98.129 Y87.255 E31.80214
G1 X97.527 Y87.256 E31.83410
G1 X93.873 Y90.910 E32.10841
G1 X93.873 Y90.308 E32.14036
G1 X96.925 Y87.256 E32.36949
G1 X96.323 Y87.256 E32.40144
G1 X93.873 Y89.706 E32.58538
G1 X93.873 Y89.104 E32.61733
G1 X95.721 Y87.256 E32.75608
G1 X95.119 Y87.256 E32.78803
G1 X93.873 Y88.502 E32.88160
G1 X93.873 Y87.900 E32.91355
G1 X94.517 Y87.256 E32.96193
G1 X93.916 Y87.256 E32.99388
G1 X93.873 Y87.298 E32.99708
G1 X105.635 Y102.621 F7800.000
G1 X105.562 Y102.693 E33.00252 F1977.113
G1 X105.977 Y103.127 F7800.000
G1 X105.996 Y103.108 E33.00328 F659.038
G1 X105.977 Y103.127 F7800.000
G1 X106.131 Y103.287 E33.00944 F659.038
G1 X105.977 Y103.441 E33.01550 F659.038
G1 X106.131 Y103.601 E33.02166 F659.038
G1 X105.977 Y103.755 E33.02771 F659.038
G1 X106.131 Y103.915 E33.03388 F659.038
G1 X105.977 Y104.070 E33.03993 F659.038
G1 X106.131 Y104.230 E33.04609 F659.038
G1 X105.977 Y104.384 E33.05215 F659.038
G1 X106.131 Y104.544 E33.05831 F659.038
G1 X105.977 Y104.698 E33.06437 F659.038
G1 X106.131 Y104.858 E33.07053 F659.038
G1 X105.977 Y105.013 E33.07659 F659.038
G1 X106.131 Y105.172 E33.08275 F659.038
G1 X105.977 Y105.327 E33.08881 F659.038
G1 X106.131 Y105.487 E33.09497 F659.038
G1 X105.977 Y105.641 E33.10103 F659.038
G1 X106.131 Y105.801 E33.10719 F659.038
G1 X105.977 Y105.956 E33.11324 F659.038
G1 X106.131 Y106.115 E33.11941 F659.038
G1 X105.977 Y106.270 E33.12546 F659.038
G1 X106.131 Y106.430 E33.13162 F659.038
G1 X105.977 Y106.584 E33.13768 F659.038
G1 X106.131 Y106.744 E33.14384 F659.038
G1 X105.977 Y106.899 E33.14990 F659.038
G1 X106.131 Y107.058 E33.15606 F659.038
G1 X105.977 Y107.213 E33.16212 F659.038
G1 X106.131 Y107.373 E33.16828 F659.038
G1 X105.977 Y107.527 E33.17434 F659.038
